packages/icons/src/components/ProductIcon/assets/managed-kafka.svg

<svg width="64" height="64" viewBox="0 0 64 64" fill="none" xmlns="http://www.w3.org/2000/svg">
    <path d="M0 16C0 7.16344 7.16344 0 16 0H48C56.8366 0 64 7.16344 64 16V48C64 56.8366 56.8366 64 48 64H16C7.16344 64 0 56.8366 0 48V16Z" fill="#F1EEFC" className="fillWeak"/>
    <path fill-rule="evenodd" clip-rule="evenodd" d="M48 2H16C8.26801 2 2 8.26801 2 16V48C2 55.732 8.26801 62 16 62H48C55.732 62 62 55.732 62 48V16C62 8.26801 55.732 2 48 2ZM16 0C7.16344 0 0 7.16344 0 16V48C0 56.8366 7.16344 64 16 64H48C56.8366 64 64 56.8366 64 48V16C64 7.16344 56.8366 0 48 0H16Z" fill="#F1EEFC" className="fillWeak"/>
    <path d="M37.793 49.2929C38.1835 48.9024 38.8165 48.9024 39.207 49.2929L42.207 52.2929C42.5975 52.6834 42.5975 53.3164 42.207 53.707L39.207 56.707C38.8165 57.0974 38.1835 57.0974 37.793 56.707C37.4025 56.3164 37.4025 55.6834 37.793 55.2929L39.0859 53.9999H23C22.4477 53.9999 22 53.5522 22 52.9999C22 52.4476 22.4477 51.9999 23 51.9999H39.0859L37.793 50.707C37.4025 50.3164 37.4025 49.6834 37.793 49.2929Z" fill="#A060F6" className="fillStrong"/>
    <path d="M27 30.4999C27.8284 30.4999 28.5 31.1715 28.5 31.9999C28.5 32.8283 27.8284 33.4999 27 33.4999C26.1716 33.4999 25.5 32.8283 25.5 31.9999C25.5 31.1715 26.1716 30.4999 27 30.4999Z" fill="#A060F6" className="fillStrong"/>
    <path d="M32 30.4999C32.8284 30.4999 33.5 31.1715 33.5 31.9999C33.5 32.8283 32.8284 33.4999 32 33.4999C31.1716 33.4999 30.5 32.8283 30.5 31.9999C30.5 31.1715 31.1716 30.4999 32 30.4999Z" fill="#A060F6" className="fillStrong"/>
    <path d="M37.793 7.29289C38.1835 6.90237 38.8165 6.90237 39.207 7.29289L42.207 10.2929C42.5975 10.6834 42.5975 11.3164 42.207 11.707L39.207 14.707C38.8165 15.0974 38.1835 15.0974 37.793 14.707C37.4025 14.3164 37.4025 13.6834 37.793 13.2929L39.0859 11.9999H23C22.4477 11.9999 22 11.5522 22 10.9999C22 10.4476 22.4477 9.99992 23 9.99992H39.0859L37.793 8.70696C37.4025 8.31644 37.4025 7.68342 37.793 7.29289Z" fill="#A060F6" className="fillStrong"/>
    <path d="M27 37.5C27.8284 37.5 28.5 38.1716 28.5 39C28.5 39.8284 27.8284 40.5 27 40.5C26.1716 40.5 25.5 39.8284 25.5 39C25.5 38.1716 26.1716 37.5 27 37.5Z" fill="#521094" className="fill"/>
    <path d="M32 37.5C32.8284 37.5 33.5 38.1716 33.5 39C33.5 39.8284 32.8284 40.5 32 40.5C31.1716 40.5 30.5 39.8284 30.5 39C30.5 38.1716 31.1716 37.5 32 37.5Z" fill="#521094" className="fill"/>
    <path d="M37 37.5C37.8284 37.5 38.5 38.1716 38.5 39C38.5 39.8284 37.8284 40.5 37 40.5C36.1716 40.5 35.5 39.8284 35.5 39C35.5 38.1716 36.1716 37.5 37 37.5Z" fill="#521094" className="fill"/>
    <path d="M27 23.5C27.8284 23.5 28.5 24.1716 28.5 25C28.5 25.8284 27.8284 26.5 27 26.5C26.1716 26.5 25.5 25.8284 25.5 25C25.5 24.1716 26.1716 23.5 27 23.5Z" fill="#521094" className="fill"/>
    <path d="M32 23.5C32.8284 23.5 33.5 24.1716 33.5 25C33.5 25.8284 32.8284 26.5 32 26.5C31.1716 26.5 30.5 25.8284 30.5 25C30.5 24.1716 31.1716 23.5 32 23.5Z" fill="#521094" className="fill"/>
    <path d="M37 23.5C37.8284 23.5 38.5 24.1716 38.5 25C38.5 25.8284 37.8284 26.5 37 26.5C36.1716 26.5 35.5 25.8284 35.5 25C35.5 24.1716 36.1716 23.5 37 23.5Z" fill="#521094" className="fill"/>
    <path fill-rule="evenodd" clip-rule="evenodd" d="M40 18.5C41.6569 18.5 43 19.8431 43 21.5V42.5C43 44.1569 41.6569 45.5 40 45.5H24C22.3431 45.5 21 44.1569 21 42.5V21.5C21 19.8431 22.3431 18.5 24 18.5H40ZM24 20.5C23.4477 20.5 23 20.9477 23 21.5V42.5C23 43.0523 23.4477 43.5 24 43.5H40C40.5523 43.5 41 43.0523 41 42.5V21.5C41 20.9477 40.5523 20.5 40 20.5H24Z" fill="#521094" className="fill"/>
    <path fill-rule="evenodd" clip-rule="evenodd" d="M16 23C16.5523 23 17 23.4477 17 24V40C17 40.5523 16.5523 41 16 41H8C7.44772 41 7 40.5523 7 40V24C7 23.4477 7.44772 23 8 23H16ZM9 39H15V25H9V39Z" fill="#521094" className="fill"/>
    <path d="M56 23C56.5523 23 57 23.4477 57 24V40C57 40.5523 56.5523 41 56 41H48C47.4477 41 47 40.5523 47 40C47 39.4477 47.4477 39 48 39H55V25H48C47.4477 25 47 24.5523 47 24C47 23.4477 47.4477 23 48 23H56Z" fill="#521094" className="fill"/>
</svg>

<svg xmlns="http://www.w3.org/2000/svg" width="64" height="64" fill="none" viewBox="0 0 64 64">
    <path fill="#f1eefc" d="M0 16C0 7.163 7.163 0 16 0h32c8.837 0 16 7.163 16 16v32c0 8.837-7.163 16-16 16H16C7.163 64 0 56.837 0 48z" className="fillWeak"/>
    <path fill="#f1eefc" fill-rule="evenodd" d="M48 2H16C8.268 2 2 8.268 2 16v32c0 7.732 6.268 14 14 14h32c7.732 0 14-6.268 14-14V16c0-7.732-6.268-14-14-14M16 0C7.163 0 0 7.163 0 16v32c0 8.837 7.163 16 16 16h32c8.837 0 16-7.163 16-16V16c0-8.837-7.163-16-16-16z" className="fillWeak" clip-rule="evenodd"/>
    <path fill="#a060f6" d="M37.793 49.293a1 1 0 0 1 1.414 0l3 3a1 1 0 0 1 0 1.414l-3 3a1 1 0 0 1-1.414-1.414L39.086 54H23a1 1 0 1 1 0-2h16.086l-1.293-1.293a1 1 0 0 1 0-1.414M27 30.5a1.5 1.5 0 1 1 0 3 1.5 1.5 0 0 1 0-3m5 0a1.5 1.5 0 1 1 0 3 1.5 1.5 0 0 1 0-3m5.793-23.207a1 1 0 0 1 1.414 0l3 3a1 1 0 0 1 0 1.414l-3 3a1 1 0 0 1-1.414-1.414L39.086 12H23a1 1 0 1 1 0-2h16.086l-1.293-1.293a1 1 0 0 1 0-1.414" className="fillStrong"/>
    <path fill="#521094" d="M27 37.5a1.5 1.5 0 1 1 0 3 1.5 1.5 0 0 1 0-3m5 0a1.5 1.5 0 1 1 0 3 1.5 1.5 0 0 1 0-3m5 0a1.5 1.5 0 1 1 0 3 1.5 1.5 0 0 1 0-3m-10-14a1.5 1.5 0 1 1 0 3 1.5 1.5 0 0 1 0-3m5 0a1.5 1.5 0 1 1 0 3 1.5 1.5 0 0 1 0-3m5 0a1.5 1.5 0 1 1 0 3 1.5 1.5 0 0 1 0-3" className="fill"/>
    <path fill="#521094" fill-rule="evenodd" d="M40 18.5a3 3 0 0 1 3 3v21a3 3 0 0 1-3 3H24a3 3 0 0 1-3-3v-21a3 3 0 0 1 3-3zm-16 2a1 1 0 0 0-1 1v21a1 1 0 0 0 1 1h16a1 1 0 0 0 1-1v-21a1 1 0 0 0-1-1zM16 23a1 1 0 0 1 1 1v16a1 1 0 0 1-1 1H8a1 1 0 0 1-1-1V24a1 1 0 0 1 1-1zM9 39h6V25H9z" className="fill" clip-rule="evenodd"/>
    <path fill="#521094" d="M56 23a1 1 0 0 1 1 1v16a1 1 0 0 1-1 1h-8a1 1 0 1 1 0-2h7V25h-7a1 1 0 1 1 0-2z" className="fill"/>
</svg>
